lib/flags/l/862.svg

<svg xmlns="http://www.w3.org/2000/svg" fill="none" viewBox="0 0 32 24"><mask id="862_svg__a" width="32" height="24" x="0" y="0" mask-type="alpha" maskUnits="userSpaceOnUse"><path fill="#fff" d="M0 0H32V24H0z"/></mask><g mask="url(#862_svg__a)"><path fill="#2E42A5" fill-rule="evenodd" d="M0 0V24H32V0H0Z" clip-rule="evenodd"/><mask id="862_svg__b" width="32" height="24" x="0" y="0" mask-type="alpha" maskUnits="userSpaceOnUse"><path fill="#fff" fill-rule="evenodd" d="M0 0V24H32V0H0Z" clip-rule="evenodd"/></mask><g fill-rule="evenodd" clip-rule="evenodd" mask="url(#862_svg__b)"><path fill="#FECA00" d="M0 0V8H32V0H0Z"/><path fill="#E31D1C" d="M0 16V24H32V16H0Z"/><path fill="#F7FCFF" d="M12.7368 11.8593 13.7195 11.3019 14.8221 11.8593 14.4262 10.7263 15.2497 9.89373H14.2016L13.718 8.82153 13.3057 9.89373H12.0762L13.0007 10.7114H11.9638L11.4803 9.63924 11.0679 10.7114H9.8384L10.7797 11.544 10.5998 12.2704H9.81525L9.33171 11.1982 8.91934 12.2704H7.68983L8.63117 13.103 8.45707 13.8058H8.11358L7.63004 12.7336 7.21767 13.8058H5.98816L6.9295 14.6384 6.64884 15.7714 7.63152 15.2139 8.73414 15.7714 8.33817 14.6384 9.1617 13.8058H9.10879L9.33319 13.6785 10.4358 14.236 10.0398 13.103 10.5118 12.6258 10.4991 12.677 11.4818 12.1196 12.5844 12.677 12.1884 11.544 13.0067 10.7168 13.0175 10.7263 12.7368 11.8593zM19.223 11.8156 18.2403 11.2582 17.1377 11.8156 17.5337 10.6826 16.7101 9.85002H17.7583L18.2418 8.77783 18.6542 9.85002H19.8837L18.9592 10.6677H20.0009L20.4844 9.59554 20.8968 10.6677H22.1263L21.185 11.5003 21.3649 12.2267H22.1495L22.633 11.1545 23.0454 12.2267H24.2749L23.3336 13.0593 23.5077 13.7621H23.8511L24.3347 12.6899 24.747 13.7621H25.9766L25.0352 14.5947 25.3159 15.7277 24.3332 15.1702 23.2306 15.7277 23.6266 14.5947 22.803 13.7621H22.8559L22.6315 13.6348 21.5289 14.1923 21.9249 13.0593 21.453 12.5821 21.4656 12.6333 20.483 12.0759 19.3803 12.6333 19.7763 11.5003 18.9558 10.6707 18.9423 10.6826 19.223 11.8156z"/><path fill="#F7FCFF" d="M15.8329 10.5348L14.8503 11.0923L15.1309 9.95923L14.1896 9.12664H15.4191L15.8315 8.05444L16.315 9.12664H17.3631L16.5396 9.95923L16.9356 11.0923L15.8329 10.5348Z"/></g></g></svg>

<svg xmlns="http://www.w3.org/2000/svg" fill="none" viewBox="0 0 32 24"><mask id="862_svg__a" width="32" height="24" x="0" y="0" maskUnits="userSpaceOnUse"><path fill="#fff" d="M0 0h32v24H0z"/></mask><g mask="url(#862_svg__a)"><path fill="#2E42A5" fill-rule="evenodd" d="M0 0v24h32V0H0z" clip-rule="evenodd"/><mask id="862_svg__b" width="32" height="24" x="0" y="0" maskUnits="userSpaceOnUse"><path fill="#fff" fill-rule="evenodd" d="M0 0v24h32V0H0z" clip-rule="evenodd"/></mask><g fill-rule="evenodd" clip-rule="evenodd" mask="url(#862_svg__b)"><path fill="#FECA00" d="M0 0v8h32V0H0z"/><path fill="#E31D1C" d="M0 16v8h32v-8H0z"/><path fill="#F7FCFF" d="M12.737 11.86l.982-.558 1.103.557-.396-1.133.824-.832h-1.048l-.484-1.072-.412 1.072h-1.23l.925.817h-1.037L11.48 9.64l-.412 1.072h-1.23l.942.833-.18.726h-.785l-.483-1.072-.413 1.072H7.69l.942.833-.174.703h-.343l-.484-1.072-.412 1.072h-1.23l.941.833-.28 1.133.983-.558 1.102.557-.396-1.133.824-.832H9.11l.224-.127 1.103.557-.396-1.133.472-.477-.013.051.983-.557 1.102.557-.396-1.133.819-.827.01.01-.28 1.132zm6.486-.044l-.983-.558-1.102.558.396-1.133-.824-.833h1.048l.484-1.072.412 1.072h1.23l-.925.818h1.042l.483-1.073.413 1.073h1.23l-.942.832.18.727h.785l.483-1.073.412 1.073h1.23l-.941.832.174.703h.343l.484-1.072.412 1.072h1.23l-.942.833.28 1.133-.982-.558-1.102.558.396-1.133-.824-.833h.053l-.225-.127-1.102.557.396-1.133-.472-.477.013.051-.983-.557-1.103.557.396-1.133-.82-.83-.014.013.281 1.133z"/><path fill="#F7FCFF" d="M15.833 10.535l-.983.557.28-1.133-.94-.832h1.23l.412-1.073.483 1.073h1.048l-.823.832.396 1.133-1.103-.557z"/></g></g></svg>
